img/svg/clock.svg

<svg width="20" height="20" viewBox="0 0 20 20" fill="none" xmlns="http://www.w3.org/2000/svg">
  <path d="M12.7628 12.7115C13.1558 12.8425 13.5805 12.6301 13.7115 12.2372C13.8425 11.8442 13.6301 11.4195 13.2372 11.2885L12.7628 12.7115ZM10 11H9.25C9.25 11.3228 9.45657 11.6094 9.76283 11.7115L10 11ZM10.75 6.81855C10.75 6.40434 10.4142 6.06855 10 6.06855C9.58578 6.06855 9.25 6.40434 9.25 6.81855H10.75ZM13.2372 11.2885L10.2372 10.2885L9.76283 11.7115L12.7628 12.7115L13.2372 11.2885ZM10.75 11V6.81855H9.25V11H10.75ZM17.25 10C17.25 14.0041 14.0041 17.25 10 17.25V18.75C14.8325 18.75 18.75 14.8325 18.75 10H17.25ZM10 17.25C5.99593 17.25 2.75 14.0041 2.75 10H1.25C1.25 14.8325 5.16751 18.75 10 18.75V17.25ZM2.75 10C2.75 5.99593 5.99593 2.75 10 2.75V1.25C5.16751 1.25 1.25 5.16751 1.25 10H2.75ZM10 2.75C14.0041 2.75 17.25 5.99593 17.25 10H18.75C18.75 5.16751 14.8325 1.25 10 1.25V2.75Z" fill="#F2F4F6" />
</svg>

<svg width="20" height="20" viewBox="0 0 20 20" fill="none" xmlns="http://www.w3.org/2000/svg"><path d="M12.763 12.711a.75.75 0 00.474-1.422l-.474 1.422zM10 11h-.75c0 .323.207.61.513.711L10 11zm.75-4.181a.75.75 0 00-1.5 0h1.5zm2.487 4.47l-3-1-.474 1.422 3 1 .474-1.422zM10.75 11V6.819h-1.5V11h1.5zm6.5-1A7.25 7.25 0 0110 17.25v1.5A8.75 8.75 0 0018.75 10h-1.5zM10 17.25A7.25 7.25 0 012.75 10h-1.5A8.75 8.75 0 0010 18.75v-1.5zM2.75 10A7.25 7.25 0 0110 2.75v-1.5A8.75 8.75 0 001.25 10h1.5zM10 2.75A7.25 7.25 0 0117.25 10h1.5A8.75 8.75 0 0010 1.25v1.5z" fill="#F2F4F6"/></svg>
